src/assets/images/arrows.svg

<svg width="32" height="18" viewBox="0 0 32 18" fill="none" xmlns="http://www.w3.org/2000/svg">
<path d="M31.3536 4.35355C31.5488 4.15829 31.5488 3.84171 31.3536 3.64645L28.1716 0.464466C27.9763 0.269204 27.6597 0.269204 27.4645 0.464466C27.2692 0.659728 27.2692 0.976311 27.4645 1.17157L30.2929 4L27.4645 6.82843C27.2692 7.02369 27.2692 7.34027 27.4645 7.53553C27.6597 7.7308 27.9763 7.7308 28.1716 7.53553L31.3536 4.35355ZM1 4.5L31 4.5V3.5L1 3.5L1 4.5Z" fill="white"/>
<path d="M0.646448 13.6464C0.451187 13.8417 0.451187 14.1583 0.646448 14.3536L3.82843 17.5355C4.02369 17.7308 4.34027 17.7308 4.53554 17.5355C4.7308 17.3403 4.7308 17.0237 4.53554 16.8284L1.70711 14L4.53554 11.1716C4.7308 10.9763 4.7308 10.6597 4.53554 10.4645C4.34027 10.2692 4.02369 10.2692 3.82843 10.4645L0.646448 13.6464ZM31 13.5L1 13.5V14.5L31 14.5V13.5Z" fill="white"/>
</svg>

<svg xmlns="http://www.w3.org/2000/svg" width="32" height="18" fill="none">
  <path fill="#fff" d="M31.354 4.354a.5.5 0 0 0 0-.708L28.172.464a.5.5 0 1 0-.707.708L30.293 4l-2.828 2.828a.5.5 0 1 0 .707.708l3.182-3.182zM1 4.5h30v-1H1v1zM.646 13.646a.5.5 0 0 0 0 .708l3.182 3.181a.5.5 0 1 0 .708-.707L1.707 14l2.829-2.828a.5.5 0 1 0-.708-.708L.646 13.646zM31 13.5H1v1h30v-1z"/>
</svg>
